X:377
T: ES WOLLT EIN HIRTLEIN TRIEBEN AUS
N: E0212A
O: Europa, Mitteleuropa, Deutschland, Schlesien
R: erzaehlendes Volks - Lied, Mahn -, Moral - Lied, Strafe; Rabenmutter
M: 2/4
L: 1/16
K: Bb
F2 | B3AB2c2 | d3cB2
c2 | d3cd2e2 | f4d4 | c4z2
f2 | e2d2c2B2 | d4c4 | B3cd2
f2 | e2d2c2B2 | d4c4 | B4z2

@@@ Tune index: 4027
